!!!COM:	Josquin des Prez
!!!CDT:	~1450-1521/08/27
!!!OTL@@LAT:	Ave maris stella
!!!OTL2@@LAT:	verse 4: Monstra te esse matrem
!!!AGN:	Motet
!!!SCT:	NJE 23.9
!!!SCA:	New Josquin Edition 23.9
!!!voices:	4
**kern	**kern	**kern	**kern
*staff4	*staff3	*staff2	*staff1
*Ivox	*Ivox	*Ivox	*Ivox
*I"Bassus	*I"Tenor	*I"Altus	*I"Superius
*I'B	*I'T	*I'A	*I'S
*clefF4	*clefGv2	*clefGv2	*clefG2
*k[]	*k[]	*k[]	*k[]
*M2/1	*M2/1	*M2/1	*M2/1
*met(C|)	*met(C|)	*met(C|)	*met(C|)
=1-	=1-	=1-	=1-
!	!	!	!LO:TX:Z=6:t=Tenor-Superius canon at the upper octave
0r	0D	1d	0r
.	.	[1f	.
=2	=2	=2	=2
0r	[0A	2f\]	0r
.	.	4e\	.
.	.	4d\	.
.	.	2f\	.
.	.	2e\	.
=3	=3	=3	=3
0r	0A]	1c	0r
.	.	1F	.
=4	=4	=4	=4
0r	0B	2G/	0d
.	.	2D/	.
.	.	1G	.
=5	=5	=5	=5
0r	1A	2F/	[0a
.	.	2G/	.
.	[1c	2A/	.
.	.	2B\	.
=6	=6	=6	=6
0AA	2c\]	2c\	0a]
.	2B\	2d\	.
.	1A	[1e	.
=7	=7	=7	=7
0E	0G	1e]	0b
.	.	1e	.
=8	=8	=8	=8
[0F	[0A	3%2cV	1a
.	.	1f	.
.	.	.	[1cc
.	.	3e\Z	.
=9	=9	=9	=9
0F]	0A]	3%2eV	2cc\]
.	.	.	2b\
.	.	3%2c	.
.	.	.	1a
.	.	3%2dZ	.
=10	=10	=10	=10
1E	0B	1e	0g
1G	.	1d	.
=11	=11	=11	=11
1.F	0c	0f	[0a
2E\	.	.	.
=12	=12	=12	=12
0D	[0d	0F	0a]
=13	=13	=13	=13
0GG	0d]	0G	0b
=14	=14	=14	=14
0AA	1.c	0E	0cc
.	4B\	.	.
.	4A/	.	.
=15	=15	=15	=15
1.D	1B	0F	[0dd
.	[1A	.	.
2C/	.	.	.
=16	=16	=16	=16
0BB	1A]	0D	0dd]
.	1G#i	.	.
=17	=17	=17	=17
1AA	0A	1E	1.cc
1A	.	2r	.
.	.	2c\	4b\
.	.	.	4a/
=18	=18	=18	=18
1G	0r	2d\	1b
.	.	2e\	.
1F	.	2f\	[1a
.	.	2d\	.
=19	=19	=19	=19
0E	0r	2e\	1a]
.	.	2c\	.
.	.	1B	1g#i
=20	=20	=20	=20
2.AA/	0A	4A/	0a
.	.	4B\	.
.	.	4c\	.
4BB/	.	4d\	.
2C/	.	2e\	.
2D\	.	2f\	.
=21	=21	=21	=21
2C/	0A	2e\	0r
2D\	.	1f	.
1AA	.	.	.
.	.	2e\	.
=22	=22	=22	=22
1A	[0D	1.f	0r
2.A\	.	.	.
.	.	4e\	.
4G\	.	4d\	.
=23	=23	=23	=23
4F\	0D]	2d\	0a
4E\	.	.	.
1D	.	1f	.
4C/	.	4e\	.
4BB/	.	4d\	.
=24	=24	=24	=24
1AA	1E	1c	0a
1AA	1F	1A	.
=25	=25	=25	=25
0GG	0G	0B	[0d
=26	=26	=26	=26
0D	0F	1.A	0d]
.	.	2B\	.
=27	=27	=27	=27
0r	1E	1c	1e
.	1D	1d	1f
=28	=28	=28	=28
1r	0E	3G/V	0g
.	.	3A/	.
.	.	3B\Z	.
1C	.	3c\V	.
.	.	3d\	.
.	.	3e\Z	.
=29	=29	=29	=29
2.D\	0D	2A/	0f
.	.	1d	.
4E\	.	.	.
2F\	.	.	.
2G\	.	4c\	.
.	.	4B\	.
=30	=30	=30	=30
1A	0r	1c	1e
1B	.	2r	1d
.	.	[2d\	.
=31	=31	=31	=31
0A	0r	2d\]	0e
.	.	4c\	.
.	.	4B\	.
.	.	2c\	.
.	.	[2A/	.
=32	=32	=32	=32
0D	0F	2A/]	0d
.	.	1f	.
.	.	4e\	.
.	.	4d\	.
=33	=33	=33	=33
1C	1E	2e\	0r
.	.	2g\	.
1D	1F	2f\	.
.	.	[2d\	.
=34	=34	=34	=34
0E	0G	2d\]	0r
.	.	4c#i\	.
.	.	4B\	.
.	.	1c#i	.
=35	=35	=35	=35
0D	0A	0d	0f
=36	=36	=36	=36
0AA	0A	0c	1e
.	.	.	1f
=37	=37	=37	=37
0BB	0D	1d	0g
.	.	1G	.
=38	=38	=38	=38
[0AA	1E	0c	0a
.	[1F	.	.
=39	=39	=39	=39
0AA]	2F/]	1.c	0a
.	4E/	.	.
.	4D/	.	.
.	2E/	.	.
.	2F/	4B\	.
.	.	4A/	.
=40	=40	=40	=40
0GG	1.G	1B	0d
.	.	2G/	.
.	2F/	2A/	.
=41	=41	=41	=41
0r	2E/	2B\	1e
.	2C/	1c	.
.	1D	.	[1f
.	.	2B\	.
=42	=42	=42	=42
0r	0C	1c	2f/]
.	.	.	4e/
.	.	.	4d/
.	.	[1g	2e/
.	.	.	2f/
=43	=43	=43	=43
2.C/	0r	2g\]	1.g
.	.	2f\	.
4D\	.	.	.
2E\	.	2e\	.
2F\	.	[2d\	2f/
=44	=44	=44	=44
2G\	0r	4d\]	2e/
.	.	4c\	.
2A\	.	1c	2c/
1G	.	.	1d
.	.	2B\	.
=45	=45	=45	=45
1.C	0E	2c\	0c
.	.	2.e\	.
.	.	4f\	.
4BB/	.	[2g\	.
4AA/	.	.	.
=46	=46	=46	=46
1GG	1G	4g\]	0r
.	.	4f\	.
.	.	2d\	.
1C	1E	2e\	.
.	.	2g\	.
=47	=47	=47	=47
1D	1F	4f\	0r
.	.	4e\	.
.	.	4d\	.
.	.	4c\	.
1E	1G	1B	.
=48	=48	=48	=48
0AA	0A	0c	0e
=49	=49	=49	=49
1r	0G	1B	1g
1C	.	1c	1e
=50	=50	=50	=50
1D	1F	1A	1f
1E	[1E	1G	1g
=51	=51	=51	=51
0F	2E/]	1c	0a
.	2D/	.	.
.	[1D	1d	.
=52	=52	=52	=52
0E	1D]	0e	0g
.	1C	.	.
=53	=53	=53	=53
1D	1D	0A	1f
1C	1E	.	[1e
=54	=54	=54	=54
1BB-	1F	0B-i	2e/]
.	.	.	2d/
1GG	1G	.	[1d
=55	=55	=55	=55
0AA	0E	[0Al	1d]
.	.	.	1c#i
=56	=56	=56	=56
0Dl	0Dl	0A]	0dl
==	==	==	==
*-	*-	*-	*-
!!!RDF**kern: %=rational rhythm
!!!rscale-alt: 1/2
!!!RDF**kern: V=start of tuplet marker
!!!RDF**kern: Z=end of tuplet marker
!!!RDF**kern: l=long note in original notation
!!!RDF**kern: i=editorial accidental
!!!ENC:	Jesse Rodin; Victoria Chang 2011/05/10
!!!END:	2011/08/05/
!!!SMS:	VatS 15
!!!EED:	Jesse Rodin
!!!EEV:	2011/08/05/
!!attribution-level: 1 (secure)
!!!ONB:	Translated from MusicXML and edited on 2011/08/05/ by Craig Sapp
!!muse2ps: u^Verse 4: Monstra te esse matrem^C^@{COM}\n@{SCT}^i2I150v90,90,90,120c90Q16
